X:3
T: dr Eggbärger  Bb (trad.)
T:Nidwaldner-Naturjuiz
T:Dirigenten-Notiz, Edi Gasser. 
C:Unterwalden (CH)
%%partsbox
M:3/4
%Q:1/4=110
R:Naturjodel
L:1/8
K:Bb
[P:A] F>F =EF f/e/d/c/ | B>F Dd cB | c>F E>d cA | B>D Dc B2 | 
F>F =EF f/e/d/c/ | B>F Dd cB | c>F E>d cA | B4z2 || 
[P:B] B/ AB | c>F Ed cA |  B>F Dd cB | c>F Ed c/e/d/c/ | 
B>D Dd !breath! !fermata!B/ B/A/B/ | c>F Ed cA | B>F Dd cB | c>F Ef cd | B4 |]
W: Parts: A-B-A-B
W:
W:mitgeteilt von Paul Gander (Sack-Paul), Beckenried
W: (Angabe von Heinrich Leuthold)
W:
W: UJV-Naturjodelsammlung: Code-Nr: 00-22
W:http://www.naturjodler.ch/tradition-3.htm  (with AUDIO)
%April 23, 2018

